X:1
T: Miss Betty Robertson's Reel
T: Miss Betsy Robertson
C:R. Mackintosh
R:Reel
Q: 232
K:G
M:4/4
L:1/8
|:c|d3g BG dB|Aa ag fd ef|gf gd Bc dB|cA dc BG Gc|
d3g BG dB|Aa ag fd ef|gf gd Bc dB|cA dc BG Gc|
BG DG EG DG|AB cB ce dc|BG DG EG ce|dB cA BG Gc|
BG DG EG DG|AB cB ce dc|Bd gd ce ag|fd ef gG G:|
